packages/icons/svg/Fill/npm.svg

<svg fill="none" height="24" viewBox="0 0 24 24" width="24" xmlns="http://www.w3.org/2000/svg"><path clip-rule="evenodd" d="m18 3h-12c-1.654 0-3 1.346-3 3v12c0 1.654 1.346 3 3 3h7v-10h4v10h1c1.654 0 3-1.346 3-3v-12c0-1.654-1.346-3-3-3" fill="#6b7280" fill-rule="evenodd"/></svg>

<svg width="24" height="24" viewBox="0 0 24 24" fill="none" xmlns="http://www.w3.org/2000/svg">
<g id="Icon/Fill/npm">
<path id="Mask" fill-rule="evenodd" clip-rule="evenodd" d="M18 3H6C4.346 3 3 4.346 3 6V18C3 19.654 4.346 21 6 21H13V11H17V21H18C19.654 21 21 19.654 21 18V6C21 4.346 19.654 3 18 3Z" fill="#000000"/>
</g>
</svg>
